src/images/svg/symbols/markets-stocks-and-indices/american-stocks/stocks-jp-morgan-chase.svg

<svg width="32" height="32" viewBox="0 0 32 32" fill="none" xmlns="http://www.w3.org/2000/svg">
<path d="M0 16C0 7.16344 7.16344 0 16 0C24.8366 0 32 7.16344 32 16C32 24.8366 24.8366 32 16 32C7.16344 32 0 24.8366 0 16Z" fill="#0079C1"/>
<path d="M12.884 6.05352C12.9697 6.0181 13.0616 5.99992 13.1543 6H19.5674L25.5199 11.6544H12.4474V6.70562C12.4475 6.61288 12.4659 6.52106 12.5014 6.4354C12.537 6.34975 12.5891 6.27194 12.6547 6.20641C12.7204 6.14089 12.7983 6.08894 12.884 6.05352Z" fill="white"/>
<path d="M25.9462 12.8809C25.9817 12.9666 26 13.0585 26 13.1512V19.5656L20.345 25.5181V12.4456H25.2931C25.3859 12.4455 25.4778 12.4636 25.5635 12.499C25.6493 12.5344 25.7272 12.5863 25.7929 12.6518C25.8585 12.7174 25.9106 12.7952 25.9462 12.8809Z" fill="white"/>
<path d="M18.8468 25.9968C18.9394 25.9968 19.0312 25.9784 19.1168 25.9428C19.2024 25.9072 19.2801 25.8551 19.3455 25.7895C19.411 25.7238 19.4628 25.6459 19.4981 25.5602C19.5333 25.4745 19.5514 25.3827 19.5511 25.29V20.3393H6.4774L12.4305 25.9925H18.8468V25.9968Z" fill="white"/>
<path d="M6.05307 19.1127C6.01779 19.027 5.99976 18.9352 6 18.8425V12.4294L11.655 6.47562V19.5494H6.70438C6.61169 19.5493 6.51993 19.5309 6.43434 19.4953C6.34876 19.4597 6.27103 19.4076 6.20561 19.342C6.14018 19.2763 6.08835 19.1984 6.05307 19.1127Z" fill="white"/>
</svg>

<svg width="32" height="32" fill="none" xmlns="http://www.w3.org/2000/svg"><path d="M0 16C0 7.163 7.163 0 16 0s16 7.163 16 16-7.163 16-16 16S0 24.837 0 16Z" fill="#0079C1"/><path d="M12.884 6.054a.706.706 0 0 1 .27-.054h6.413l5.953 5.654H12.447V6.706a.708.708 0 0 1 .437-.652ZM25.946 12.88a.707.707 0 0 1 .054.271v6.415l-5.655 5.952V12.446h4.948a.706.706 0 0 1 .653.435ZM18.847 25.997a.703.703 0 0 0 .704-.707v-4.95H6.477l5.954 5.652h6.416v.005ZM6.053 19.113a.705.705 0 0 1-.053-.27v-6.414l5.655-5.953v13.073h-4.95a.705.705 0 0 1-.652-.436Z" fill="#fff"/></svg>
